!!!SOCIAL_FUNCTION:	miscellaneous songs
!!!PDT:	1957
!!!OTL: No_6_Song_to_the_Birds.krn
!!!LING_GROUP: Keresan
!!!LANG: Tone
!!!REG: Southwest
**kern
*staff1
=1-
=
*clefF4
*k[f#c#]
*M2/4
4B\
4d\
=2
8d\L
8c#\J
8d\L
8B\J
=3
8d\L
8c#\J
8d\L
8B\J
=4
4c#\
4c#\
=5
8c#\L
8F#\J
4F#\
=6
4c#\
4c#\
=7
16d\LK
8.B\J
16B\LK
8.F#\J
=8
8B\L
8B\J
8B\
8r
=9
4B\
4B\
=10
8B\L
8F#\J
8F#\
8r
=11
4F#\
4c#\
=12
16d\LK
8.c#\J
16c#\LK
8.B\J
=13
4c#\
8.c#\L
16B\Jk
=14
4c#\
8c#\L
8B\J
=15
4c#\
8c#\L
8B\J
=16
8c#\L
8c#\J
8c#\L
8B\J
=17
8c#\L
8F#\J
4F#\
=18
4d\
4c#\
=19
16d\LK
8.B\J
16B\LK
8.F#\J
=20
8B\L
8B\J
8B\L
8F#\J
=21
4B\
4B\
=22
8B\L
8F#\J
8F#\
8r
==:|!
*-
